X: 40753
T: Touch Of Gaelic
R: waltz
M: 3/4
K: Fmajor
|:z4 A2|c6|A4 G2|F6|G4 A2|C6|D2 C2 D2|F6|z4 z2:|
z4 C2|F4 A2|B4 c2|d6|c4 d2|c6|A2 G2 F2|B6|
c4 d2|A2 c4|A4 G2|F6|G4 A2|C6|D2 C2 D2|F6|z4 z2|
|:z4 "3"a2|c'6|a4 g2|f6|g4 a2|c6|d2 c2 d2|f6|z4 z2:|
z4 c2|f4 a2|b4 c'2|d'6|c'4 d'2|c'6|a2 g2 f2|b6|c'4 d'2|
a2 c'4|a4 g2|f6|g4 a2|c6|d2 c2 d2|f6|z4 z2|

